content/blogs/regnskap/hva-er-bokforing/fremtidens-bokforing-teknologi.svg

<svg xmlns="http://www.w3.org/2000/svg" width="800" height="600" viewBox="0 0 800 600"><path fill="#f8f9fa" d="M0 0h800v600H0z"/><text x="400" y="30" fill="#2c3e50" font-family="Arial, sans-serif" font-size="22" font-weight="bold" text-anchor="middle">
    Fremtidens Bokføring - Teknologiske Trender
  </text><rect width="200" height="120" x="50" y="70" fill="#3498db" stroke="#2980b9" stroke-width="2" rx="10"/><text x="150" y="95" fill="#fff" font-family="Arial, sans-serif" font-size="14" font-weight="bold" text-anchor="middle">
    Kunstig Intelligens
  </text><text x="150" y="115" fill="#fff" font-family="Arial, sans-serif" font-size="12" text-anchor="middle">
    og Maskinlæring
  </text><text x="70" y="140" fill="#fff" font-family="Arial, sans-serif" font-size="10">
    • Automatisk kategorisering
  </text><text x="70" y="155" fill="#fff" font-family="Arial, sans-serif" font-size="10">
    • Intelligent bilagsgjenkjenning
  </text><text x="70" y="170" fill="#fff" font-family="Arial, sans-serif" font-size="10">
    • Prediktiv analyse
  </text><rect width="200" height="120" x="300" y="70" fill="#27ae60" stroke="#229954" stroke-width="2" rx="10"/><text x="400" y="95" fill="#fff" font-family="Arial, sans-serif" font-size="14" font-weight="bold" text-anchor="middle">
    Blockchain
  </text><text x="400" y="115" fill="#fff" font-family="Arial, sans-serif" font-size="12" text-anchor="middle">
    Teknologi
  </text><text x="320" y="140" fill="#fff" font-family="Arial, sans-serif" font-size="10">
    • Uforanderlige poster
  </text><text x="320" y="155" fill="#fff" font-family="Arial, sans-serif" font-size="10">
    • Transparent revisjonsspor
  </text><text x="320" y="170" fill="#fff" font-family="Arial, sans-serif" font-size="10">
    • Redusert svindel
  </text><rect width="200" height="120" x="550" y="70" fill="#f39c12" stroke="#e67e22" stroke-width="2" rx="10"/><text x="650" y="95" fill="#fff" font-family="Arial, sans-serif" font-size="14" font-weight="bold" text-anchor="middle">
    Sky-teknologi
  </text><text x="650" y="115" fill="#fff" font-family="Arial, sans-serif" font-size="12" text-anchor="middle">
    og API-er
  </text><text x="570" y="140" fill="#fff" font-family="Arial, sans-serif" font-size="10">
    • Sanntids samarbeid
  </text><text x="570" y="155" fill="#fff" font-family="Arial, sans-serif" font-size="10">
    • Automatisk backup
  </text><text x="570" y="170" fill="#fff" font-family="Arial, sans-serif" font-size="10">
    • Skalerbare løsninger
  </text><rect width="200" height="120" x="50" y="220" fill="#9b59b6" stroke="#8e44ad" stroke-width="2" rx="10"/><text x="150" y="245" fill="#fff" font-family="Arial, sans-serif" font-size="14" font-weight="bold" text-anchor="middle">
    Sanntidsanalyse
  </text><text x="150" y="265" fill="#fff" font-family="Arial, sans-serif" font-size="12" text-anchor="middle">
    og Dashboards
  </text><text x="70" y="290" fill="#fff" font-family="Arial, sans-serif" font-size="10">
    • Live finansielle KPI-er
  </text><text x="70" y="305" fill="#fff" font-family="Arial, sans-serif" font-size="10">
    • Automatiske varsler
  </text><text x="70" y="320" fill="#fff" font-family="Arial, sans-serif" font-size="10">
    • Prediktive modeller
  </text><rect width="200" height="120" x="300" y="220" fill="#e74c3c" stroke="#c0392b" stroke-width="2" rx="10"/><text x="400" y="245" fill="#fff" font-family="Arial, sans-serif" font-size="14" font-weight="bold" text-anchor="middle">
    IoT Integrasjon
  </text><text x="400" y="265" fill="#fff" font-family="Arial, sans-serif" font-size="12" text-anchor="middle">
    Tingenes Internett
  </text><text x="320" y="290" fill="#fff" font-family="Arial, sans-serif" font-size="10">
    • Automatisk datainnsamling
  </text><text x="320" y="305" fill="#fff" font-family="Arial, sans-serif" font-size="10">
    • Smart inventering
  </text><text x="320" y="320" fill="#fff" font-family="Arial, sans-serif" font-size="10">
    • Sensordrevet bokføring
  </text><rect width="200" height="120" x="550" y="220" fill="#34495e" stroke="#2c3e50" stroke-width="2" rx="10"/><text x="650" y="245" fill="#fff" font-family="Arial, sans-serif" font-size="14" font-weight="bold" text-anchor="middle">
    RegTech
  </text><text x="650" y="265" fill="#fff" font-family="Arial, sans-serif" font-size="12" text-anchor="middle">
    Regulatorisk Teknologi
  </text><text x="570" y="290" fill="#fff" font-family="Arial, sans-serif" font-size="10">
    • Automatisk compliance
  </text><text x="570" y="305" fill="#fff" font-family="Arial, sans-serif" font-size="10">
    • Regelverksoppdateringer
  </text><text x="570" y="320" fill="#fff" font-family="Arial, sans-serif" font-size="10">
    • Risikostyring
  </text><circle cx="400" cy="420" r="60" fill="#16a085" stroke="#138d75" stroke-width="3"/><text x="400" y="410" fill="#fff" font-family="Arial, sans-serif" font-size="12" font-weight="bold" text-anchor="middle">
    Integrert
  </text><text x="400" y="425" fill="#fff" font-family="Arial, sans-serif" font-size="12" font-weight="bold" text-anchor="middle">
    Bokførings-
  </text><text x="400" y="440" fill="#fff" font-family="Arial, sans-serif" font-size="12" font-weight="bold" text-anchor="middle">
    økosystem
  </text><path fill="none" stroke="#2c3e50" stroke-width="2" d="m150 350 200 30-5-10m5 10-10-5M400 350v10l-10-5m10 5 10-5M650 350l-200 30 5-10m-5 10 10-5"/><path fill="none" stroke="#2c3e50" stroke-width="2" d="m150 200 200 180-5-10m5 10-10-5M650 200 450 380l5-10m-5 10 10-5"/><rect width="700" height="80" x="50" y="500" fill="#ecf0f1" stroke="#bdc3c7" stroke-width="2" rx="10"/><text x="400" y="525" fill="#2c3e50" font-family="Arial, sans-serif" font-size="16" font-weight="bold" text-anchor="middle">
    Fordeler med Fremtidens Bokføring
  </text><text x="100" y="545" fill="#2c3e50" font-family="Arial, sans-serif" font-size="11">
    • 90% reduksjon i manuelt arbeid
  </text><text x="100" y="560" fill="#2c3e50" font-family="Arial, sans-serif" font-size="11">
    • Sanntids finansiell innsikt
  </text><text x="100" y="575" fill="#2c3e50" font-family="Arial, sans-serif" font-size="11">
    • Proaktiv feildeteksjon
  </text><text x="350" y="545" fill="#2c3e50" font-family="Arial, sans-serif" font-size="11">
    • Automatisk regelverksetterlevelse
  </text><text x="350" y="560" fill="#2c3e50" font-family="Arial, sans-serif" font-size="11">
    • Forbedret datakvalitet
  </text><text x="350" y="575" fill="#2c3e50" font-family="Arial, sans-serif" font-size="11">
    • Strategisk beslutningsstøtte
  </text><text x="600" y="545" fill="#2c3e50" font-family="Arial, sans-serif" font-size="11">
    • Reduserte kostnader
  </text><text x="600" y="560" fill="#fff" font-family="Arial, sans-serif" font-size="11">
    • Økt konkurranseevne
  </text><text x="600" y="575" fill="#2c3e50" font-family="Arial, sans-serif" font-size="11">
    • Bærekraftig vekst
  </text></svg>

<svg width="800" height="600" viewBox="0 0 800 600" xmlns="http://www.w3.org/2000/svg">

  <rect width="800" height="600" fill="#f8f9fa"/>
  

  <text x="400" y="30" text-anchor="middle" font-family="Arial, sans-serif" font-size="22" font-weight="bold" fill="#2c3e50">
    Fremtidens Bokføring - Teknologiske Trender
  </text>
  

  <rect x="50" y="70" width="200" height="120" fill="#3498db" stroke="#2980b9" stroke-width="2" rx="10"/>
  <text x="150" y="95" text-anchor="middle" font-family="Arial, sans-serif" font-size="14" font-weight="bold" fill="white">
    Kunstig Intelligens
  </text>
  <text x="150" y="115" text-anchor="middle" font-family="Arial, sans-serif" font-size="12" fill="white">
    og Maskinlæring
  </text>
  
  <text x="70" y="140" font-family="Arial, sans-serif" font-size="10" fill="white">
    • Automatisk kategorisering
  </text>
  <text x="70" y="155" font-family="Arial, sans-serif" font-size="10" fill="white">
    • Intelligent bilagsgjenkjenning
  </text>
  <text x="70" y="170" font-family="Arial, sans-serif" font-size="10" fill="white">
    • Prediktiv analyse
  </text>
  

  <rect x="300" y="70" width="200" height="120" fill="#27ae60" stroke="#229954" stroke-width="2" rx="10"/>
  <text x="400" y="95" text-anchor="middle" font-family="Arial, sans-serif" font-size="14" font-weight="bold" fill="white">
    Blockchain
  </text>
  <text x="400" y="115" text-anchor="middle" font-family="Arial, sans-serif" font-size="12" fill="white">
    Teknologi
  </text>
  
  <text x="320" y="140" font-family="Arial, sans-serif" font-size="10" fill="white">
    • Uforanderlige poster
  </text>
  <text x="320" y="155" font-family="Arial, sans-serif" font-size="10" fill="white">
    • Transparent revisjonsspor
  </text>
  <text x="320" y="170" font-family="Arial, sans-serif" font-size="10" fill="white">
    • Redusert svindel
  </text>
  

  <rect x="550" y="70" width="200" height="120" fill="#f39c12" stroke="#e67e22" stroke-width="2" rx="10"/>
  <text x="650" y="95" text-anchor="middle" font-family="Arial, sans-serif" font-size="14" font-weight="bold" fill="white">
    Sky-teknologi
  </text>
  <text x="650" y="115" text-anchor="middle" font-family="Arial, sans-serif" font-size="12" fill="white">
    og API-er
  </text>
  
  <text x="570" y="140" font-family="Arial, sans-serif" font-size="10" fill="white">
    • Sanntids samarbeid
  </text>
  <text x="570" y="155" font-family="Arial, sans-serif" font-size="10" fill="white">
    • Automatisk backup
  </text>
  <text x="570" y="170" font-family="Arial, sans-serif" font-size="10" fill="white">
    • Skalerbare løsninger
  </text>
  

  <rect x="50" y="220" width="200" height="120" fill="#9b59b6" stroke="#8e44ad" stroke-width="2" rx="10"/>
  <text x="150" y="245" text-anchor="middle" font-family="Arial, sans-serif" font-size="14" font-weight="bold" fill="white">
    Sanntidsanalyse
  </text>
  <text x="150" y="265" text-anchor="middle" font-family="Arial, sans-serif" font-size="12" fill="white">
    og Dashboards
  </text>
  
  <text x="70" y="290" font-family="Arial, sans-serif" font-size="10" fill="white">
    • Live finansielle KPI-er
  </text>
  <text x="70" y="305" font-family="Arial, sans-serif" font-size="10" fill="white">
    • Automatiske varsler
  </text>
  <text x="70" y="320" font-family="Arial, sans-serif" font-size="10" fill="white">
    • Prediktive modeller
  </text>
  

  <rect x="300" y="220" width="200" height="120" fill="#e74c3c" stroke="#c0392b" stroke-width="2" rx="10"/>
  <text x="400" y="245" text-anchor="middle" font-family="Arial, sans-serif" font-size="14" font-weight="bold" fill="white">
    IoT Integrasjon
  </text>
  <text x="400" y="265" text-anchor="middle" font-family="Arial, sans-serif" font-size="12" fill="white">
    Tingenes Internett
  </text>
  
  <text x="320" y="290" font-family="Arial, sans-serif" font-size="10" fill="white">
    • Automatisk datainnsamling
  </text>
  <text x="320" y="305" font-family="Arial, sans-serif" font-size="10" fill="white">
    • Smart inventering
  </text>
  <text x="320" y="320" font-family="Arial, sans-serif" font-size="10" fill="white">
    • Sensordrevet bokføring
  </text>
  

  <rect x="550" y="220" width="200" height="120" fill="#34495e" stroke="#2c3e50" stroke-width="2" rx="10"/>
  <text x="650" y="245" text-anchor="middle" font-family="Arial, sans-serif" font-size="14" font-weight="bold" fill="white">
    RegTech
  </text>
  <text x="650" y="265" text-anchor="middle" font-family="Arial, sans-serif" font-size="12" fill="white">
    Regulatorisk Teknologi
  </text>
  
  <text x="570" y="290" font-family="Arial, sans-serif" font-size="10" fill="white">
    • Automatisk compliance
  </text>
  <text x="570" y="305" font-family="Arial, sans-serif" font-size="10" fill="white">
    • Regelverksoppdateringer
  </text>
  <text x="570" y="320" font-family="Arial, sans-serif" font-size="10" fill="white">
    • Risikostyring
  </text>
  

  <circle cx="400" cy="420" r="60" fill="#16a085" stroke="#138d75" stroke-width="3"/>
  <text x="400" y="410" text-anchor="middle" font-family="Arial, sans-serif" font-size="12" font-weight="bold" fill="white">
    Integrert
  </text>
  <text x="400" y="425" text-anchor="middle" font-family="Arial, sans-serif" font-size="12" font-weight="bold" fill="white">
    Bokførings-
  </text>
  <text x="400" y="440" text-anchor="middle" font-family="Arial, sans-serif" font-size="12" font-weight="bold" fill="white">
    økosystem
  </text>
  

  <path d="M 150 350 L 350 380 L 345 370 M 350 380 L 340 375" stroke="#2c3e50" stroke-width="2" fill="none"/>
  <path d="M 400 350 L 400 360 L 390 355 M 400 360 L 410 355" stroke="#2c3e50" stroke-width="2" fill="none"/>
  <path d="M 650 350 L 450 380 L 455 370 M 450 380 L 460 375" stroke="#2c3e50" stroke-width="2" fill="none"/>
  
  <path d="M 150 200 L 350 380 L 345 370 M 350 380 L 340 375" stroke="#2c3e50" stroke-width="2" fill="none"/>
  <path d="M 650 200 L 450 380 L 455 370 M 450 380 L 460 375" stroke="#2c3e50" stroke-width="2" fill="none"/>
  

  <rect x="50" y="500" width="700" height="80" fill="#ecf0f1" stroke="#bdc3c7" stroke-width="2" rx="10"/>
  <text x="400" y="525" text-anchor="middle" font-family="Arial, sans-serif" font-size="16" font-weight="bold" fill="#2c3e50">
    Fordeler med Fremtidens Bokføring
  </text>
  
  <text x="100" y="545" font-family="Arial, sans-serif" font-size="11" fill="#2c3e50">
    • 90% reduksjon i manuelt arbeid
  </text>
  <text x="100" y="560" font-family="Arial, sans-serif" font-size="11" fill="#2c3e50">
    • Sanntids finansiell innsikt
  </text>
  <text x="100" y="575" font-family="Arial, sans-serif" font-size="11" fill="#2c3e50">
    • Proaktiv feildeteksjon
  </text>
  
  <text x="350" y="545" font-family="Arial, sans-serif" font-size="11" fill="#2c3e50">
    • Automatisk regelverksetterlevelse
  </text>
  <text x="350" y="560" font-family="Arial, sans-serif" font-size="11" fill="#2c3e50">
    • Forbedret datakvalitet
  </text>
  <text x="350" y="575" font-family="Arial, sans-serif" font-size="11" fill="#2c3e50">
    • Strategisk beslutningsstøtte
  </text>
  
  <text x="600" y="545" font-family="Arial, sans-serif" font-size="11" fill="#2c3e50">
    • Reduserte kostnader
  </text>
  <text x="600" y="560" font-family="Arial, sans-serif" font-size="11" fill="white">
    • Økt konkurranseevne
  </text>
  <text x="600" y="575" font-family="Arial, sans-serif" font-size="11" fill="#2c3e50">
    • Bærekraftig vekst
  </text>
</svg>
